src/assets/icon-3d.svg

<?xml version="1.0" encoding="UTF-8"?>
<svg width="16px" height="16px" viewBox="0 0 16 16" version="1.1" xmlns="http://www.w3.org/2000/svg" xmlns:xlink="http://www.w3.org/1999/xlink">
    <title>icon_3D</title>
    <g id="页面-1" stroke="none" stroke-width="1" fill="none" fill-rule="evenodd">
        <g id="藏品展示-3D" transform="translate(-339.000000, -152.000000)" fill="#FFFFFF" fill-rule="nonzero">
            <g id="icon_3D" transform="translate(339.000000, 152.000000)">
                <path d="M3.4132515,10.1868706 L3.83995969,9.600018 C4.15997732,9.919982 4.5867035,10.240018 5.17324952,10.240018 C5.8132488,10.240018 6.23999298,9.86692463 6.23999298,9.28 C6.23999298,8.64 5.81323081,8.21314736 4.53323225,8.21314736 L4.53323225,7.57330934 C5.65323099,7.57330934 6.02670188,7.14674466 6.02670188,6.560036 C6.02670188,6.080018 5.70668424,5.760018 5.17323153,5.760018 C4.74666733,5.760018 4.37325042,5.97330934 4.05325078,6.29329134 L3.57325132,5.760018 C4.05325078,5.33330934 4.5867035,5.06672666 5.22668478,5.06672666 C6.23999298,5.06672666 6.9866828,5.600018 6.9866828,6.50672666 C6.9866828,7.14674466 6.61321191,7.62672666 6.02671988,7.840018 L6.02671988,7.89330934 C6.66666517,8.05329134 7.19995591,8.53318335 7.19995591,9.33314736 C7.19995591,10.3468886 6.34668352,10.9868886 5.27997606,10.9868886 C4.37326842,10.9331474 3.7867044,10.6131114 3.4132515,10.1868706 L3.4132515,10.1868706 Z M8.37310194,5.17327334 L9.86684154,5.17327334 C11.6268396,5.17327334 12.5868565,6.13329134 12.5868565,8.000018 C12.5868565,9.86690664 11.5731343,10.880018 9.91997084,10.880018 L8.37310194,10.880018 L8.37310194,5.17327334 Z M9.76000702,10.1331114 C10.9868583,10.1331114 11.6268576,9.439982 11.6268576,8 C11.6268576,6.56 10.9868583,5.92 9.76000702,5.92 L9.22686026,5.92 L9.22686026,10.1331114 L9.76000702,10.1331114 L9.76000702,10.1331114 Z" id="形状"></path>
                <path d="M15.4668532,8.53314736 C15.1468896,8.53314736 14.9330946,8.26685264 14.9330946,8 C14.9330946,4.64 12.480022,1.81329134 9.27998956,1.22672666 L10.4530816,2.61327334 C10.6668946,2.82670866 10.6131174,3.2 10.3999523,3.41327334 C10.133118,3.57329134 9.76000702,3.57329134 9.5999712,3.30670866 L7.57324682,0.853273341 C7.413247,0.693273341 7.413247,0.48 7.51999154,0.266708661 C7.57324682,0.106726659 7.7867179,0 8.000009,0 C12.4268747,0 16,3.57329134 16,8 C16,8.320018 15.7330577,8.53314736 15.4668532,8.53314736 L15.4668532,8.53314736 Z M8,16 C3.57326932,16 0,12.4268706 0,8 C0,7.68 0.266726359,7.46672666 0.533272741,7.46672666 C0.7999991,7.46672666 1.06670746,7.73327334 1.06670746,8 C1.06670746,11.36 3.51999604,14.1868706 6.72002844,14.7731474 L5.54673842,13.3868886 C5.33324934,13.1731474 5.3867026,12.8 5.5999757,12.5868706 C5.8132668,12.3731114 6.1866837,12.4268706 6.39995681,12.64 L8.42687916,15.0931294 C8.58687898,15.2531294 8.58687898,15.4668706 8.48002646,15.679982 C8.42687916,15.8931114 8.21308412,16 8,16 L8,16 Z" id="形状"></path>
            </g>
        </g>
    </g>
</svg>

<svg xmlns="http://www.w3.org/2000/svg" width="16" height="16" fill="#fff" xmlns:v="https://vecta.io/nano"><path d="M3.413 10.187L3.84 9.6c.32.32.747.64 1.333.64.64 0 1.067-.373 1.067-.96 0-.64-.427-1.067-1.707-1.067v-.64c1.12 0 1.493-.427 1.493-1.013 0-.48-.32-.8-.853-.8-.427 0-.8.213-1.12.533l-.48-.533c.48-.427 1.013-.693 1.653-.693 1.013 0 1.76.533 1.76 1.44 0 .64-.373 1.12-.96 1.333v.053c.64.16 1.173.64 1.173 1.44 0 1.014-.853 1.654-1.92 1.654-.907-.054-1.493-.374-1.867-.8h0zm4.96-5.014h1.494c1.76 0 2.72.96 2.72 2.827s-1.014 2.88-2.667 2.88H8.373V5.173zm1.387 4.96c1.227 0 1.867-.693 1.867-2.133s-.64-2.08-1.867-2.08h-.533v4.213h.533 0zm5.707-1.6c-.32 0-.534-.266-.534-.533 0-3.36-2.453-6.187-5.653-6.773l1.173 1.387c.214.213.16.587-.053.8-.267.16-.64.16-.8-.107L7.573.853c-.16-.16-.16-.373-.053-.587C7.573.107 7.787 0 8 0a7.99 7.99 0 0 1 8 8c0 .32-.267.533-.533.533h0zM8 16a7.99 7.99 0 0 1-8-8c0-.32.267-.533.533-.533s.533.267.533.533c0 3.36 2.453 6.187 5.653 6.773l-1.173-1.386c-.213-.214-.16-.587.053-.8s.587-.16.8.053l2.027 2.453c.16.16.16.374.053.587-.053.213-.267.32-.48.32h0z"/></svg>
